X:1
T:Goldberg Variations: Variation XIII
T:BWV 988
T:J. S. Bach
%%score { 1 | ( 2 3 4 ) }
L:1/8
Q:1/4=60
M:3/4
K:G
V:1 treble nm="Harp"
V:2 bass 
V:3 bass 
V:4 bass 
V:1
"^Lent" B/4c/4B/4A/4B- B/4F/4G/4A/4B/c/ d/4c/4B/A/G/ | %1
 d/4e/4d/4^c/4d- d/4c/4d/4e/4f/g/ a/4g/4f/e/d/ | g/4a/4g/4f/4g- g/4f/4e/4f/4g/e/ A/b/a/g/ | %3
 g/8f/8e/4f/4e/4d- d/4^c/4d/4e/4f/g/ a/b/4c'/4b/a/ | %4
 g/4=f/4e/f/4e/4f/- f/4d/4g/4a/4b/4c'/4d'/ c'/b/a/g/ | %5
 =f/4e/4d/d/e/- e/4d/4c/4B/4c/4d/4e/ d/g/e/c/ | %6
 B/4A/4G/A- A/4G/4A/4B/4c/4F/4G/4A/4 D/4F/4E/4D/4A/4G/4F/4c/4- | %7
 c/4B/4A/B- B/4A/4G/4F/4G/4B/4d/4f/4 g/4f/4e/4d/4f/4a/4b/4c'/4 | %8
 b/4a/4g/-g/4f/4e/- e/4^d/4e/-e/4f/4g/- g/4a/4b/-b/4g/4f/4e/4 | %9
 a/4g/4f/-f/4e/4d/- d/4^c/4d/-d/4e/4f/- f/4g/4a/-a/4f/4e/4d/4 | %10
 g/4a/4b/4a/4g/f/ e/4f/4g/4f/4e/d/ ^c/4d/4e/4d/4c/B/ | %11
 B/4A/4B/4A/4B/4A/4B/4A/4 B/4A/4B/4A/4A/4^c/4B/4A/4 B/4c/4d/4e/4f/a/8g/8f/8g/8 | %12
 a/4d/4^c/4d/4e/4d/4c/4d/4 A/4d/4G/4d/4F/4d/4E/4d/4 F/4d/4A/4d/4F/4d/4D/4=c/4 | %13
 B/4d/4^c/4d/4e/4d/4c/4d/4 B/4d/4A/4d/4G/4d/4F/4d/4 G/4d/4B/4d/4G/4d/4E/4d/4 | %14
 ^c/4G/4F/4G/4A/4G/4F/4G/4 e/4c/4B/4c/4d/4c/4B/4c/4 g/4e/4d/4e/4a/4g/4f/4e/4 | %15
 f/^c/c/d/ d/G/G/F/ F2 | B/4c/4B/4A/4B- B/4F/4G/4A/4B/c/ d/4c/4B/A/G/ | %17
 d/4e/4d/4^c/4d- d/4c/4d/4e/4f/g/ a/4g/4f/e/d/ | g/4a/4g/4f/4g- g/4f/4e/4f/4g/e/ A/b/a/g/ | %19
 g/8f/8e/4f/4e/4d- d/4^c/4d/4e/4f/g/ a/b/4c'/4b/a/ | %20
 g/4=f/4e/f/4e/4f/- f/4d/4g/4a/4b/4c'/4d'/ c'/b/a/g/ | %21
 =f/4e/4d/d/e/- e/4d/4c/4B/4c/4d/4e/ d/g/e/c/ | %22
 B/4A/4G/A- A/4G/4A/4B/4c/4F/4G/4A/4 D/4F/4E/4D/4A/4G/4F/4c/4- | %23
 c/4B/4A/B- B/4A/4G/4F/4G/4B/4d/4f/4 g/4f/4e/4d/4f/4a/4b/4c'/4 | %24
 b/4a/4g/-g/4f/4e/- e/4^d/4e/-e/4f/4g/- g/4a/4b/-b/4g/4f/4e/4 | %25
 a/4g/4f/-f/4e/4d/- d/4^c/4d/-d/4e/4f/- f/4g/4a/-a/4f/4e/4d/4 | %26
 g/4a/4b/4a/4g/f/ e/4f/4g/4f/4e/d/ ^c/4d/4e/4d/4c/B/ | %27
 B/4A/4B/4A/4B/4A/4B/4A/4 B/4A/4B/4A/4A/4^c/4B/4A/4 B/4c/4d/4e/4f/a/8g/8f/8g/8 | %28
 a/4d/4^c/4d/4e/4d/4c/4d/4 A/4d/4G/4d/4F/4d/4E/4d/4 F/4d/4A/4d/4F/4d/4D/4=c/4 | %29
 B/4d/4^c/4d/4e/4d/4c/4d/4 B/4d/4A/4d/4G/4d/4F/4d/4 G/4d/4B/4d/4G/4d/4E/4d/4 | %30
 ^c/4G/4F/4G/4A/4G/4F/4G/4 e/4c/4B/4c/4d/4c/4B/4c/4 g/4e/4d/4e/4a/4g/4f/4e/4 | %31
 f/^c/c/d/ d/G/G/F/ F2 | f/4g/4f/4e/4f- f/4e/4f/4g/4a/b/ c'/4b/4a/g/f/ | %33
 g/4a/4g/4f/4g- g/4F/4G/4A/4B/c/ d/4c/4B/A/G/ | e/4f/4e/4^d/4e- e/^g/g/a/ a/b/b/c'/ | %35
 e/4^d/4^c/d/4c/4d/- d-d/4d/4e/4f/4 e/4d/4c/4B/4A/4G/4A/4f/4 | %36
 G/4e/4^d/4e/4=f/4e/4d/4e/4 ^f/4e/4g/4e/4a/4e/4b/4e/4 c'/4e/4d'/4e/4c'/4e/4b/4e/4 | %37
 c'/4e/4^d/4e/4=f/4e/4d/4e/4 c'/4e/4b/4e/4a/4e/4g/4e/4 ^f/4e/4g/4e/4a/4e/4d/4^c/4 | %38
 ^d/4a/4g/4a/4b/4a/4g/4a/4 B/4g/4f/4g/4a/4g/4f/4g/4 A/4f/4e/4f/4g/4a/4g/4f/4 | %39
 g/^d/d/e/ e/A/A/G/ G/4F/<G/B/4c/4=d/4 | e/4=f/4e/4^d/4e- e/A/B/4A/4G/ A/4G/4F/F/e/ | %41
 d/4e/4d/4^c/4d- d/G/A/4G/4F/ G/4=F/4E/E/d/ | %42
 c/4B/4A/-A/4G/4F/- F/4E/4D/-D/4E/4F/- F/4G/4A/-A/4B/4c/- | %43
 c/4d/4c/4B/4c/4g/4f/4e/4 f/4b/4a/4g/4a/4d'/4c'/4b/4 c'/4b/4a/4g/4f/4e/4d/4c/4 | %44
 B/4g/4f/4g/4a/4g/4f/4g/4 c/4f/4e/4f/4g/4f/4e/4f/4 d/4=f/4e/4f/4g/4f/4e/4d/4 | %45
 e/4c/4B/4c/4d/4c/4B/4c/4 d/4B/4A/4B/4c/4B/4A/4B/4 ^c/4_B/4A/4B/4=c/4B/4A/4G/4 | %46
 F/4c/4B/4c/4d/4c/4B/4c/4 f/4c/4B/4c/4d/4c/4B/4c/4 a/4c/4B/4c/4d/4c/4B/4A/4 | %47
 B/F/F/G/ G/C/C/B,/ B,2 | f/4g/4f/4e/4f- f/4e/4f/4g/4a/b/ c'/4b/4a/g/f/ | %49
 g/4a/4g/4f/4g- g/4F/4G/4A/4B/c/ d/4c/4B/A/G/ | e/4f/4e/4^d/4e- e/^g/g/a/ a/b/b/c'/ | %51
 e/4^d/4^c/d/4c/4d/- d-d/4d/4e/4f/4 e/4d/4c/4B/4A/4G/4A/4f/4 | %52
 G/4e/4^d/4e/4=f/4e/4d/4e/4 ^f/4e/4g/4e/4a/4e/4b/4e/4 c'/4e/4d'/4e/4c'/4e/4b/4e/4 | %53
 c'/4e/4^d/4e/4=f/4e/4d/4e/4 c'/4e/4b/4e/4a/4e/4g/4e/4 ^f/4e/4g/4e/4a/4e/4d/4^c/4 | %54
 ^d/4a/4g/4a/4b/4a/4g/4a/4 B/4g/4f/4g/4a/4g/4f/4g/4 A/4f/4e/4f/4g/4a/4g/4f/4 | %55
 g/^d/d/e/ e/A/A/G/ G/4F/<G/B/4c/4=d/4 | e/4=f/4e/4^d/4e- e/A/B/4A/4G/ A/4G/4F/F/e/ | %57
 d/4e/4d/4^c/4d- d/G/A/4G/4F/ G/4=F/4E/E/d/ | %58
 c/4B/4A/-A/4G/4F/- F/4E/4D/-D/4E/4F/- F/4G/4A/-A/4B/4c/- | %59
 c/4d/4c/4B/4c/4g/4f/4e/4 f/4b/4a/4g/4a/4d'/4c'/4b/4 c'/4b/4a/4g/4f/4e/4d/4c/4 | %60
 B/4g/4f/4g/4a/4g/4f/4g/4 c/4f/4e/4f/4g/4f/4e/4f/4 d/4=f/4e/4f/4g/4f/4e/4d/4 | %61
 e/4c/4B/4c/4d/4c/4B/4c/4 d/4B/4A/4B/4c/4B/4A/4B/4 ^c/4_B/4A/4B/4=c/4B/4A/4G/4 | %62
 F/4c/4B/4c/4d/4c/4B/4c/4 f/4c/4B/4c/4d/4c/4B/4c/4 a/4c/4B/4c/4d/4c/4B/4A/4 | %63
 B/F/F/G/ G/C/C/B,/ B,2 |] %64
V:2
[I:staff -1] z z/[I:staff +1] B,/ D4- | D>A, D4- | D>B, ^C4 | %3
[I:staff -1] z z/[I:staff +1] F,/ A,4 |[I:staff -1] z z/[I:staff +1] D,/ G,4- | G,>F, G,4- | %6
 G,>E, F,4 |[I:staff -1] z z/[I:staff +1] F,/ G,2[I:staff -1] z2 | z[I:staff +1] B, E4- | EA, D4- | %10
 DA, G,4- | G,/A,/G,/F,/ G,[I:staff -1] z z2 | x6 | x6 |[I:staff +1] A,^C GE C2 | %15
[I:staff -1] z2 z ^C D2 | z z/[I:staff +1] B,/ D4- | D>A, D4- | D>B, ^C4 | %19
[I:staff -1] z z/[I:staff +1] F,/ A,4 |[I:staff -1] z z/[I:staff +1] F,/ A,4 | G,>F, G,4- | %22
 G,>E, F,4 |[I:staff -1] z z/[I:staff +1] F,/ G,2[I:staff -1] z2 | z[I:staff +1] B, E4- | %25
 EA,[I:staff -1] D4- |[I:staff +1] DA, G,4- | G,/A,/G,/F,/ G,[I:staff -1] z z2 | x6 | x6 | %30
[I:staff +1] A,^C GE C2 |[I:staff -1] z2 z ^C D2 | %32
[I:staff +1][K:treble][I:staff -1] z z/[I:staff +1] F/ A4 | %33
[K:treble][I:staff -1] z z/[I:staff +1] D/ G4- | G>^G AD E=G- | %35
 GF/E/ F[I:staff -1] z[I:staff +1][K:bass] z2 |[I:staff -1] z[I:staff +1] B,2 A,2 ^G, | %37
[I:staff -1] z[I:staff +1] C2 E CA, |[I:staff -1] z[I:staff +1] F, G, E2 ^D | %39
[I:staff -1] z2 z ^D E z | z z/[I:staff +1] G,/ C/D/E D^C | B,>F, B,/C/D CB, | x6 | x6 | %44
[I:staff -1] z[I:staff +1] E _ED GB, | CG, A,D EA,- | A,A,/G,/ A,2 G,F, | G,A, B,F, G,2 | %48
[I:staff -1] z z/[I:staff +1] F/ A4 |[I:staff -1] z z/[I:staff +1] D/ G4- | G>^G AD E=G- | %51
 GF/E/ F[I:staff -1] z z2 | z[I:staff +1] B,2 A,2 ^G, |[I:staff -1] z[I:staff +1] C2 E CA, | %54
[I:staff -1] z[I:staff +1] F, G, E2 ^D |[I:staff -1] z2 z ^D E z | z z/[I:staff +1] G,/ C/D/E D^C | %57
 B,>F, B,/C/D CB, | x6 | x6 |[I:staff -1] z[I:staff +1] E _ED GB, | CG, A,D EA,- | %62
 A,A,/G,/ A,2 G,F, | G,A, B,F, G,2 |] %64
V:3
 G,3 G, F,E, | F,3 B, A,B, | E,3 A, G,A, | D,3 E, D,C, | B,,3 G,, A,,B,, | C,3 A,, B,,C, | %6
 D,3 D, C,D, | G,,3 G,, B,,D, | G,2 z G, F,E, | F,3 B, A,B, | E,3 F, E,D, | ^C,3 E, A,,G,, | %12
 F,,F,/>E,/ F,A, D,F, | G,,G,/>F,/ G,B, E,G, | A,,A,/>G,/ A,3 A, | D,6 | G,3 G, F,E, | %17
 F,3 B, A,B, | E,3 A, G,A, | D,3 E, D,C, | B,,3 G,, A,,B,, | C,3 A,, B,,C, | D,3 D, C,D, | %23
 G,,3 G,, B,,D, | G,2 z G, F,E, | F,3 B, A,B, | E,3 F, E,D, | ^C,3 E, A,,G,, | %28
 F,,F,/>E,/ F,A, D,F, | G,,G,/>F,/ G,B, E,G, | A,,A,/>G,/ A,3 A, | D,6 |[K:treble] D3 C/B,/ CA, | %33
[K:treble] B,3 D G,B, | C3 B, CA, | B,3[K:bass] B,, ^C,^D, | E,,G,/A,/ G,F, E,2 | %37
 A,,A,/G,/ A,C A,F, | B,,^D, E,G, B,2 | E,4- E,D, | C,2 z C B,^A, | B,B,, z B, A,^G, | %42
 A,E, A,C A,F, | D,2 z4 | G,,G, A,B, z G, | C,E, =F,^F, G,F,/E,/ | D,2- D,F, E,D, | G,,2 z2 G,,2 | %48
 D3 C/B,/ CA, | B,3 D G,B, | C3 B, CA, | B,3 B,, ^C,^D, | E,,G,/A,/ G,F, E,2 | A,,A,/G,/ A,C A,F, | %54
 B,,^D, E,G, B,2 | E,4- E,D, | C,2 z C B,^A, | B,B,, z B, A,^G, | A,E, A,C A,F, | D,2 z4 | %60
 G,,G, A,B, z G, | C,E, =F,^F, G,F,/E,/ | D,2- D,F, E,D, | G,,2 z2 G,,2 |] %64
V:4
 x6 | x6 | x6 | x6 | x6 | x6 | x6 | x6 | x6 | x6 | x6 | x6 | z A, D3 A, | G,B, E3 B, | x6 | %15
 DE, F,_B, A,2 | x6 | x6 | x6 | x6 | x6 | x6 | x6 | x6 | x6 | x6 | x6 | x6 | z A, D3 A, | %29
 G,B, E3 B, | x6 | DE, F,_B, A,2 |[K:treble] x6 |[K:treble] x6 | x6 | x3[K:bass] x3 | x6 | x6 | %38
 x6 | EF, G,C B, z | x6 | x6 | A,A,, z4 | z A,, D,,F,, A,,D, | x6 | x6 | x6 | z3 _E, D,2 | x6 | %49
 x6 | x6 | x6 | x6 | x6 | x6 | EF, G,C B, z | x6 | x6 | A,A,, z4 | z A,, D,,F,, A,,D, | x6 | x6 | %62
 x6 | z3 _E, D,2 |] %64

